svg/color/eosbull.svg

<?xml version="1.0" encoding="UTF-8" ?>
<!DOCTYPE svg PUBLIC "-//W3C//DTD SVG 1.1//EN" "http://www.w3.org/Graphics/SVG/1.1/DTD/svg11.dtd">
<svg width="250pt" height="214pt" viewBox="0 0 250 214" version="1.1" xmlns="http://www.w3.org/2000/svg">
<g id="#ffffffff">
<path fill="#ffffff" opacity="1.00" d=" M 0.00 0.00 L 250.00 0.00 L 250.00 214.00 L 0.00 214.00 L 0.00 0.00 M 73.19 12.16 C 72.47 21.42 72.95 30.72 72.86 40.00 C 72.93 48.12 72.35 56.27 73.43 64.35 C 79.94 64.73 86.47 64.72 92.99 64.60 C 133.00 64.61 173.00 64.61 213.00 64.60 C 219.38 64.76 225.77 64.77 232.12 64.12 C 232.97 55.43 232.46 46.71 232.53 38.00 C 232.45 29.31 232.98 20.60 232.11 11.94 C 225.76 11.40 219.38 11.39 213.01 11.55 C 172.34 11.53 131.67 11.54 91.00 11.54 C 85.06 11.35 79.09 11.34 73.19 12.16 M 11.53 82.72 C 11.53 99.58 11.50 116.45 11.55 133.31 C 28.54 133.67 45.54 133.64 62.53 133.33 C 62.53 116.47 62.52 99.60 62.53 82.74 C 45.54 82.47 28.53 82.50 11.53 82.72 M 73.77 82.77 C 73.45 99.63 73.56 116.50 73.71 133.36 C 82.47 133.67 91.24 133.47 100.00 133.52 C 128.86 133.43 157.72 133.69 186.57 133.40 C 186.57 116.51 186.61 99.63 186.56 82.74 C 172.71 82.41 158.85 82.66 145.00 82.59 C 121.25 82.71 97.50 82.34 73.77 82.77 M 74.11 152.47 C 73.05 160.28 73.60 168.16 73.55 176.00 C 73.63 185.04 73.15 194.09 73.89 203.11 C 83.90 204.13 93.96 203.48 104.00 203.62 C 110.81 203.74 117.62 203.74 124.42 203.36 C 124.81 197.25 124.84 191.12 124.72 185.00 C 124.54 174.20 125.08 163.38 124.47 152.59 C 107.69 152.21 90.89 152.43 74.11 152.47 Z" />
</g>
<g id="#abebf4ff">
<path fill="#abebf4" opacity="1.00" d=" M 73.19 12.16 C 79.09 11.34 85.06 11.35 91.00 11.54 C 131.67 11.54 172.34 11.53 213.01 11.55 C 219.38 11.39 225.76 11.40 232.11 11.94 C 232.98 20.60 232.45 29.31 232.53 38.00 C 232.46 46.71 232.97 55.43 232.12 64.12 C 225.77 64.77 219.38 64.76 213.00 64.60 C 173.00 64.61 133.00 64.61 92.99 64.60 C 86.47 64.72 79.94 64.73 73.43 64.35 C 72.35 56.27 72.93 48.12 72.86 40.00 C 72.95 30.72 72.47 21.42 73.19 12.16 M 74.37 13.57 C 74.41 30.12 74.25 46.68 74.46 63.24 C 126.50 63.32 178.54 63.42 230.58 63.18 C 230.66 46.65 230.58 30.12 230.63 13.59 C 178.54 13.43 126.45 13.48 74.37 13.57 Z" />
<path fill="#abebf4" opacity="1.00" d=" M 74.11 152.47 C 90.89 152.43 107.69 152.21 124.47 152.59 C 125.08 163.38 124.54 174.20 124.72 185.00 C 124.84 191.12 124.81 197.25 124.42 203.36 C 117.62 203.74 110.81 203.74 104.00 203.62 C 93.96 203.48 83.90 204.13 73.89 203.11 C 73.15 194.09 73.63 185.04 73.55 176.00 C 73.60 168.16 73.05 160.28 74.11 152.47 Z" />
</g>
<g id="#02a5c2ff">
<path fill="#02a5c2" opacity="1.00" d=" M 74.37 13.57 C 126.45 13.48 178.54 13.43 230.63 13.59 C 230.58 30.12 230.66 46.65 230.58 63.18 C 178.54 63.42 126.50 63.32 74.46 63.24 C 74.25 46.68 74.41 30.12 74.37 13.57 Z" />
</g>
<g id="#5fcadeff">
<path fill="#5fcade" opacity="1.00" d=" M 11.53 82.72 C 28.53 82.50 45.54 82.47 62.53 82.74 C 62.52 99.60 62.53 116.47 62.53 133.33 C 45.54 133.64 28.54 133.67 11.55 133.31 C 11.50 116.45 11.53 99.58 11.53 82.72 Z" />
<path fill="#5fcade" opacity="1.00" d=" M 73.77 82.77 C 97.50 82.34 121.25 82.71 145.00 82.59 C 158.85 82.66 172.71 82.41 186.56 82.74 C 186.61 99.63 186.57 116.51 186.57 133.40 C 157.72 133.69 128.86 133.43 100.00 133.52 C 91.24 133.47 82.47 133.67 73.71 133.36 C 73.56 116.50 73.45 99.63 73.77 82.77 Z" />
</g>
</svg>

<?xml version="1.0" encoding="utf-8"?>
<!-- Generator: Adobe Illustrator 26.0.3, SVG Export Plug-In . SVG Version: 6.00 Build 0)  -->
<svg version="1.1" id="Layer_1" xmlns="http://www.w3.org/2000/svg" xmlns:xlink="http://www.w3.org/1999/xlink" x="0px" y="0px"
	 viewBox="0 0 250 214" style="enable-background:new 0 0 250 214;" xml:space="preserve">
<style type="text/css">
	.st0{fill:#ABEBF4;}
	.st1{fill:#02A5C2;}
	.st2{fill:#5FCADE;}
</style>
<g id="_x23_abebf4ff">
	<path class="st0" d="M73.2,12.2c5.9-0.8,11.9-0.8,17.8-0.6c40.7,0,81.3,0,122,0c6.4-0.2,12.8-0.2,19.1,0.4
		c0.9,8.7,0.3,17.4,0.4,26.1c-0.1,8.7,0.4,17.4-0.4,26.1c-6.3,0.6-12.7,0.6-19.1,0.5c-40,0-80,0-120,0c-6.5,0.1-13,0.1-19.6-0.2
		c-1.1-8.1-0.5-16.2-0.6-24.3C72.9,30.7,72.5,21.4,73.2,12.2 M74.4,13.6c0,16.6-0.1,33.1,0.1,49.7c52,0.1,104.1,0.2,156.1-0.1
		c0.1-16.5,0-33.1,0.1-49.6C178.5,13.4,126.4,13.5,74.4,13.6z"/>
	<path class="st0" d="M74.1,152.5c16.8,0,33.6-0.3,50.4,0.1c0.6,10.8,0.1,21.6,0.2,32.4c0.1,6.1,0.1,12.2-0.3,18.4
		c-6.8,0.4-13.6,0.4-20.4,0.3c-10-0.1-20.1,0.5-30.1-0.5c-0.7-9-0.3-18.1-0.3-27.1C73.6,168.2,73.1,160.3,74.1,152.5z"/>
</g>
<g id="_x23_02a5c2ff">
	<path class="st1" d="M74.4,13.6c52.1-0.1,104.2-0.1,156.3,0c-0.1,16.5,0,33.1-0.1,49.6c-52,0.2-104.1,0.1-156.1,0.1
		C74.2,46.7,74.4,30.1,74.4,13.6z"/>
</g>
<g id="_x23_5fcadeff">
	<path class="st2" d="M11.5,82.7c17-0.2,34-0.2,51,0c0,16.9,0,33.7,0,50.6c-17,0.3-34,0.3-51,0C11.5,116.4,11.5,99.6,11.5,82.7z"/>
	<path class="st2" d="M73.8,82.8c23.7-0.4,47.5-0.1,71.2-0.2c13.9,0.1,27.7-0.2,41.6,0.2c0.1,16.9,0,33.8,0,50.7
		c-28.9,0.3-57.7,0-86.6,0.1c-8.8-0.1-17.5,0.1-26.3-0.2C73.6,116.5,73.4,99.6,73.8,82.8z"/>
</g>
</svg>
